resources/images/flask.svg

<svg xmlns="http://www.w3.org/2000/svg" xmlns:xlink="http://www.w3.org/1999/xlink" preserveAspectRatio="none" width="285" height="427" viewBox="0 0 285 427"><defs><linearGradient id="a" gradientUnits="userSpaceOnUse" x1="45.8" y1="284.65" x2="133.5" y2="284.65" spreadMethod="pad"><stop offset="0%" stop-color="gray"/><stop offset="53.333%" stop-color="#BFBFBF"/><stop offset="64.314%" stop-color="#CCC"/><stop offset="73.725%" stop-color="#BABABA"/><stop offset="100%" stop-color="#777"/></linearGradient><linearGradient id="b" gradientUnits="userSpaceOnUse" x1="43.625" y1="260.85" x2="132.775" y2="260.85" spreadMethod="pad"><stop offset="0%" stop-color="#BFBFBF"/><stop offset="64.314%" stop-color="#777"/><stop offset="100%" stop-color="#959595"/></linearGradient><linearGradient id="c" gradientUnits="userSpaceOnUse" x1="149.962" y1="305.8" x2="242.238" y2="305.8" spreadMethod="pad"><stop offset="0%" stop-color="#262626"/><stop offset="64.314%" stop-color="#333"/><stop offset="100%" stop-color="#090909"/></linearGradient><linearGradient id="d" gradientUnits="userSpaceOnUse" x1="149.962" y1="294.75" x2="242.238" y2="294.75" spreadMethod="pad"><stop offset="0%" stop-color="#999"/><stop offset="53.333%" stop-color="#BFBFBF"/><stop offset="64.314%" stop-color="#CCC"/><stop offset="73.725%" stop-color="#BABABA"/><stop offset="100%" stop-color="#999"/></linearGradient><linearGradient id="e" gradientUnits="userSpaceOnUse" x1="152.362" y1="227.25" x2="239.838" y2="227.25" spreadMethod="pad"><stop offset="0%" stop-color="gray"/><stop offset="53.333%" stop-color="#BFBFBF"/><stop offset="64.314%" stop-color="#CCC"/><stop offset="73.725%" stop-color="#BABABA"/><stop offset="100%" stop-color="#7B7B7B"/></linearGradient><linearGradient id="f" gradientUnits="userSpaceOnUse" x1="149.962" y1="148.3" x2="242.238" y2="148.3" spreadMethod="pad"><stop offset="0%" stop-color="#262626"/><stop offset="64.314%" stop-color="#404040"/><stop offset="100%" stop-color="#090909"/></linearGradient><linearGradient id="g" gradientUnits="userSpaceOnUse" x1="172.85" y1="118.1" x2="219.45" y2="118.1" spreadMethod="pad"><stop offset="0%" stop-color="#262626"/><stop offset="64.314%" stop-color="#333"/><stop offset="100%" stop-color="#090909"/></linearGradient><radialGradient id="h" gradientUnits="userSpaceOnUse" cx="0" cy="0" r="5" fx="0" fy="0" gradientTransform="matrix(0 -1 4.69 0 196.1 109.1)" spreadMethod="pad"><stop offset="0%" stop-color="#333"/><stop offset="100%" stop-color="#090909"/></radialGradient><g id="i"><path fill="#242728" d="M59.8 313.35q1.3 1 2.75 1.85 24.55 9.1 50.1 0 5.1-2.8 7.45-4.7-31.45 11.65-64.4-.45 1.8 2.1 3.1 3.15.5.1 1 .15z"/><path fill="#333" d="M14.15 254.95v21.35q.4 14.05 14.15 28.1 15.3 6.55 30.5 8.8-1.3-1.05-3.1-3.15-1.25-1.55-1.25-1.65-8.75-10.05-8.65-27.2v-20.3q-.05 0-.05-.05-2.1-1.75-2.1-3.75v-2.15q-11.45-1.2-29.5 0m6.7 9.85q1.65-2.8 7.95-2.75 6.25.1 8.1 2.75l2.65 27.35q.95 10.35-8.65 6.25-8.4-8.5-10.05-19.9v-13.7M242.1 150.95q-.4 1.6-2.25 3.1v130.4q2.35 2.35 2.35 5.05v.2l-.05 15.5q7.85-3.7 11.85-18.5V183.3l8.55-13.65q10.55-16.9 7.65-32.2-8.8-2.65-28-1.2l-.05 12.95.05.85-.1.9z"/><path fill="url(#a)" d="M133.5 261.1q-.25-.15-.55-.25-.05-.05-.15-.05-1.8 2.3-4.95 4.15-10.55 6.2-36.05 6.85-27.95.75-42.9-7.85-1.1-1.25-3.1-3.05v20.3q-.1 17.15 8.65 27.2 0 .1 1.25 1.65 32.95 12.1 64.4.45 1.6-1.9 1.6-1.95 10-9.6 11.8-25.2V261.1z"/><path fill="#CCC" d="M88.05 254q15.35.35 26.05 2.5 9.25 1.85 13.3 4.65h.45q.65 1.9 0 3.8 3.15-1.85 4.95-4.15-7.75-9.1-41.2-10.1-33.5-1.05-47.35 4.3h-.6v2.1q0 2 2.1 3.75 0 .05.05.05 2 1.8 3.1 3.05-1.8-4.6 0-5.55 4.25-2.2 13.2-3.4 10.7-1.4 25.95-1z"/><path fill="url(#b)" d="M114.1 256.5q-10.7-2.15-26.05-2.5-15.25-.4-25.95 1-8.95 1.2-13.2 3.4-1.8.95 0 5.55 14.95 8.6 42.9 7.85 25.5-.65 36.05-6.85.65-1.9 0-3.8h-.45q-4.05-2.8-13.3-4.65z"/><path fill="url(#c)" d="M150.15 304.95v2.85q1.35 5.5 13.3 9.55 13.55 4.6 32.65 4.6 19.05 0 32.55-4.6 12.3-4.15 13.45-9.85l.05-2.3.05-15.5q-.15 4.6-7.1 8.25-2.7 1.35-6.45 2.65-13.5 4.55-32.55 4.55-19.1 0-32.65-4.55-3.7-1.3-6.35-2.65-6.9-3.65-7.15-8.15l.2 15.15z"/><path fill="url(#d)" d="M152.35 284.4q-2.4 2.4-2.4 5.1v.3q.25 4.5 7.15 8.15 2.65 1.35 6.35 2.65 13.55 4.55 32.65 4.55 19.05 0 32.55-4.55 3.75-1.3 6.45-2.65 6.95-3.65 7.1-8.25v-.2q0-2.7-2.35-5.05v3.85q-.2 3.6-6.8 6.45-2.5 1.1-6.05 2.1-12.85 3.6-30.9 3.6-18.15 0-30.95-3.6-3.55-1-6.1-2.1-6.5-2.85-6.7-6.45v-3.9z"/><path fill="url(#e)" d="M196.1 162.35q-19.15 0-32.65-3.6-7.8-2.1-11.1-4.6V288.3q.2 3.6 6.7 6.45 2.55 1.1 6.1 2.1 12.8 3.6 30.95 3.6 18.05 0 30.9-3.6 3.55-1 6.05-2.1 6.6-2.85 6.8-6.45V154.05q-3.3 2.6-11.2 4.7-13.35 3.6-32.55 3.6z"/><path fill="url(#f)" d="M235.1 140.8q-2.7 1.05-6.45 2.05-13.5 3.6-32.55 3.6-19.1 0-32.65-3.6-3.7-1-6.35-2.05-6.9-2.95-7.15-6.4l.2 14.55v2.3q.45 1.5 2.2 2.9 3.3 2.5 11.1 4.6 13.5 3.6 32.65 3.6 19.2 0 32.55-3.6 7.9-2.1 11.2-4.7 1.85-1.5 2.25-3.1l.05-1.75.05-12.95v-1.9q-.15 3.5-7.1 6.45z"/><path fill="#B9B9B9" d="M242.2 134.35l-2.3-3.75q-.15 3.15-6.75 5.7-2.5.9-6.1 1.75-12.7 3.2-30.7 3.2-18.1 0-30.85-3.2-3.5-.85-6-1.75-6.5-2.55-6.75-5.65.25 3.1 6.75 5.65 2.5.9 6 1.75 12.75 3.2 30.85 3.2 18 0 30.7-3.2 3.6-.85 6.1-1.75 6.6-2.55 6.75-5.7-5.85-3-16.1-4.55.55.55 1.1 1 1.2.55 1.85 1.15l.05.05q.55.55.55 1.15 0 2.45-9.2 4.15-9.15 1.75-22.1 1.75-13 0-22.15-1.75-9.2-1.7-9.2-4.15 0-.1.05-.25.15-.8 1.3-1.5.45-.3 1.05-.6 1.1-.65 2.05-1.45-10.95 1.45-16.85 4.6-2.35 1.2-2.35 3.9v.3q.25 3.45 7.15 6.4 2.65 1.05 6.35 2.05 13.55 3.6 32.65 3.6 19.05 0 32.55-3.6 3.75-1 6.45-2.05 6.95-2.95 7.1-6.45m-22.65-14.05h-.1q0 2.15-6.85 3.65-.65.1-1.4.3-.95.2-1.9.35-5.75.85-13.15.85-8 0-14.1-1l-1.1-.2q-.65-.2-1.3-.3-6.8-1.5-6.8-3.65-1.4 3.25-3.7 5.3-.95.8-2.05 1.45-.6.3-1.05.6-1.15.7-1.3 1.5-.05.15-.05.25 0 2.45 9.2 4.15 9.15 1.75 22.15 1.75 12.95 0 22.1-1.75 9.2-1.7 9.2-4.15 0-.6-.55-1.15l-.05-.05q-.65-.6-1.85-1.15-.55-.45-1.1-1-2-2.05-4.25-5.75z"/><path fill="url(#g)" d="M212.6 114.35q-.65.1-1.4.3-6.35 1.2-15.05 1.2-8.75 0-15.2-1.2-.65-.2-1.3-.3-.1 0-.25-.05-6.45-1.5-6.55-3.55v9.55q0 2.15 6.8 3.65.65.1 1.3.3l1.1.2q6.1 1 14.1 1 7.4 0 13.15-.85.95-.15 1.9-.35.75-.2 1.4-.3 6.85-1.5 6.85-3.65V110.75q-.1 2.05-6.55 3.55-.2.05-.3.05z"/><path fill="url(#h)" d="M219.45 110.75v-.05-.2q-.3-2.05-6.85-3.45-6.8-1.5-16.45-1.5-9.65 0-16.5 1.5-5.45 1.2-6.5 2.85-.1.2-.15.35-.15.15-.15.3v.2q.1 2.05 6.55 3.55.15.05.25.05.65.1 1.3.3 6.45 1.2 15.2 1.2 8.7 0 15.05-1.2.75-.2 1.4-.3.1 0 .3-.05 6.45-1.5 6.55-3.55z"/></g><path id="j" stroke="#000" stroke-width="2" stroke-linejoin="round" stroke-linecap="round" fill="none" d="M172.85 110.75v-.05-.15q0-.15.15-.3.05-.15.15-.35 1.05-1.65 6.5-2.85 6.85-1.5 16.5-1.5t16.45 1.5q6.55 1.4 6.85 3.45v9.6q.05.05.1.2 2.25 3.7 4.25 5.75 10.25 1.55 16.1 4.55l2.3 3.75m0 1.9q19.2-1.45 28 1.2 2.9 15.3-7.65 32.2L254 183.3v103.4q-4 14.8-11.85 18.5.05.55.05 1.1 0 .6-.1 1.2-1.15 5.7-13.45 9.85-13.5 4.6-32.55 4.6-19.1 0-32.65-4.6-11.95-4.05-13.3-9.55-.2-.75-.2-1.5 0-.7.2-1.35l-.2-15.15v-.3q0-2.7 2.4-5.1V154.15q-1.75-1.4-2.2-2.9-.2-.6-.2-1.2 0-.55.2-1.1l-.2-14.55v-.3q0-2.7 2.35-3.9 5.9-3.15 16.85-4.6 2.3-2.05 3.7-5.3v-9.55q.1 2.05 6.55 3.55.15.05.25.05.65.1 1.3.3 6.45 1.2 15.2 1.2 8.7 0 15.05-1.2.75-.2 1.4-.3.1 0 .3-.05 6.45-1.5 6.55-3.55m0 9.55q0 2.15-6.85 3.65-.65.1-1.4.3-.95.2-1.9.35-5.75.85-13.15.85-8 0-14.1-1l-1.1-.2q-.65-.2-1.3-.3-6.8-1.5-6.8-3.65m46.6-.2v.2m-50.3 5.3q-.95.8-2.05 1.45-.6.3-1.05.6-1.15.7-1.3 1.5-.05.15-.05.25 0 2.45 9.2 4.15 9.15 1.75 22.15 1.75 12.95 0 22.1-1.75 9.2-1.7 9.2-4.15 0-.6-.55-1.15l-.05-.05q-.65-.6-1.85-1.15-.55-.45-1.1-1m18.4 8.3q-.15 3.5-7.1 6.45-2.7 1.05-6.45 2.05-13.5 3.6-32.55 3.6-19.1 0-32.65-3.6-3.7-1-6.35-2.05-6.9-2.95-7.15-6.4m89.95-3.8q-.15 3.15-6.75 5.7-2.5.9-6.1 1.75-12.7 3.2-30.7 3.2-18.1 0-30.85-3.2-3.5-.85-6-1.75-6.5-2.55-6.75-5.65m87.1 23.4q-3.3 2.6-11.2 4.7-13.35 3.6-32.55 3.6-19.15 0-32.65-3.6-7.8-2.1-11.1-4.6m89.75-3.2q-.4 1.6-2.25 3.1v130.4q2.35 2.35 2.35 5.05v.2l-.05 15.5-.05 2.3m0-156.55l.05-1.75.05-12.95m-.05 12.95l.05.85-.1.9m-91.95-2v2.3m-22.75 109.9q-4.05-2.8-13.3-4.65-10.7-2.15-26.05-2.5-15.25-.4-25.95 1-8.95 1.2-13.2 3.4-1.8.95 0 5.55 14.95 8.6 42.9 7.85 25.5-.65 36.05-6.85.65-1.9 0-3.8m4.95-.35q.1 0 .15.05.3.1.55.25v22.25q-1.8 15.6-11.8 25.2 0 .05-1.6 1.95-2.35 1.9-7.45 4.7-25.55 9.1-50.1 0-1.45-.85-2.75-1.85-.1.6-1-.15-15.2-2.25-30.5-8.8-13.75-14.05-14.15-28.1v-21.35q18.05-1.2 29.5 0l.6.05q13.85-5.35 47.35-4.3 33.45 1 41.2 10.1-1.8 2.3-4.95 4.15m112 19.5v3.85q-.2 3.6-6.8 6.45-2.5 1.1-6.05 2.1-12.85 3.6-30.9 3.6-18.15 0-30.95-3.6-3.55-1-6.1-2.1-6.5-2.85-6.7-6.45v-3.9m-131.5-5.9q1.65 11.4 10.05 19.9 9.6 4.1 8.65-6.25L36.9 264.8q-1.85-2.65-8.1-2.75-6.3-.05-7.95 2.75v13.7zm22.8-23.5v2.1q0 2 2.1 3.75 0 .05.05.05 2 1.8 3.1 3.05m-5.25-9v.05m12.05 55.05q-1.25-1.55-1.25-1.65-8.75-10.05-8.65-27.2v-20.3m14 52.45q-.5-.05-1-.15-1.3-1.05-3.1-3.15 32.95 12.1 64.4.45m30.05-5.55v2.85m92.05-18.1q-.15 4.6-7.1 8.25-2.7 1.35-6.45 2.65-13.5 4.55-32.55 4.55-19.1 0-32.65-4.55-3.7-1.3-6.35-2.65-6.9-3.65-7.15-8.15"/></defs><g><use xlink:href="#i"/><use xlink:href="#j"/></g></svg>

<svg xmlns="http://www.w3.org/2000/svg" version="1.1" xmlns:xlink="http://www.w3.org/1999/xlink" preserveAspectRatio="none" x="0px" y="0px" width="285px" height="427px" viewBox="0 0 285 427">
<defs>
<linearGradient id="Gradient_1" gradientUnits="userSpaceOnUse" x1="45.800000000000004" y1="284.65" x2="133.5" y2="284.65" spreadMethod="pad">
<stop  offset="0%" stop-color="#808080"/>

<stop  offset="53.333333333333336%" stop-color="#BFBFBF"/>

<stop  offset="64.31372549019608%" stop-color="#CCCCCC"/>

<stop  offset="73.72549019607843%" stop-color="#BABABA"/>

<stop  offset="100%" stop-color="#777777"/>
</linearGradient>

<linearGradient id="Gradient_2" gradientUnits="userSpaceOnUse" x1="43.625" y1="260.85" x2="132.775" y2="260.85" spreadMethod="pad">
<stop  offset="0%" stop-color="#BFBFBF"/>

<stop  offset="64.31372549019608%" stop-color="#777777"/>

<stop  offset="100%" stop-color="#959595"/>
</linearGradient>

<linearGradient id="Gradient_3" gradientUnits="userSpaceOnUse" x1="149.96249999999998" y1="305.8" x2="242.2375" y2="305.8" spreadMethod="pad">
<stop  offset="0%" stop-color="#262626"/>

<stop  offset="64.31372549019608%" stop-color="#333333"/>

<stop  offset="100%" stop-color="#090909"/>
</linearGradient>

<linearGradient id="Gradient_4" gradientUnits="userSpaceOnUse" x1="149.96249999999998" y1="294.75" x2="242.2375" y2="294.75" spreadMethod="pad">
<stop  offset="0%" stop-color="#999999"/>

<stop  offset="53.333333333333336%" stop-color="#BFBFBF"/>

<stop  offset="64.31372549019608%" stop-color="#CCCCCC"/>

<stop  offset="73.72549019607843%" stop-color="#BABABA"/>

<stop  offset="100%" stop-color="#999999"/>
</linearGradient>

<linearGradient id="Gradient_5" gradientUnits="userSpaceOnUse" x1="152.36249999999998" y1="227.25" x2="239.8375" y2="227.25" spreadMethod="pad">
<stop  offset="0%" stop-color="#808080"/>

<stop  offset="53.333333333333336%" stop-color="#BFBFBF"/>

<stop  offset="64.31372549019608%" stop-color="#CCCCCC"/>

<stop  offset="73.72549019607843%" stop-color="#BABABA"/>

<stop  offset="100%" stop-color="#7B7B7B"/>
</linearGradient>

<linearGradient id="Gradient_6" gradientUnits="userSpaceOnUse" x1="149.96249999999998" y1="148.3" x2="242.2375" y2="148.3" spreadMethod="pad">
<stop  offset="0%" stop-color="#262626"/>

<stop  offset="64.31372549019608%" stop-color="#404040"/>

<stop  offset="100%" stop-color="#090909"/>
</linearGradient>

<linearGradient id="Gradient_7" gradientUnits="userSpaceOnUse" x1="172.85" y1="118.1" x2="219.45000000000002" y2="118.1" spreadMethod="pad">
<stop  offset="0%" stop-color="#262626"/>

<stop  offset="64.31372549019608%" stop-color="#333333"/>

<stop  offset="100%" stop-color="#090909"/>
</linearGradient>

<radialGradient id="Gradient_8" gradientUnits="userSpaceOnUse" cx="0" cy="0" r="5" fx="0" fy="0" gradientTransform="matrix( 0, -1, 4.69, 0, 196.1,109.1) " spreadMethod="pad">
<stop  offset="0%" stop-color="#333333"/>

<stop  offset="100%" stop-color="#090909"/>
</radialGradient>

<g id="Layer0_0_FILL">
<path fill="#242728" stroke="none" d="
M 59.8 313.35
Q 61.1 314.35 62.55 315.2 87.1 324.3 112.65 315.2 117.75 312.4 120.1 310.5 88.65 322.15 55.7 310.05 57.5 312.15 58.8 313.2 59.3 313.3 59.8 313.35 Z"/>

<path fill="#333333" stroke="none" d="
M 14.15 254.95
L 14.15 276.3
Q 14.55 290.35 28.3 304.4 43.6 310.95 58.8 313.2 57.5 312.15 55.7 310.05 54.45 308.5 54.45 308.4 45.7 298.35 45.8 281.2
L 45.8 260.9
Q 45.75 260.9 45.75 260.85 43.65 259.1 43.65 257.1
L 43.65 255 43.65 254.95
Q 32.2 253.75 14.15 254.95
M 20.85 264.8
Q 22.5 262 28.8 262.05 35.05 262.15 36.9 264.8
L 39.55 292.15
Q 40.5 302.5 30.9 298.4 22.5 289.9 20.85 278.5
L 20.85 264.8
M 242.1 150.95
Q 241.7 152.55 239.85 154.05
L 239.85 284.45
Q 242.2 286.8 242.2 289.5
L 242.2 289.7 242.15 305.2
Q 250 301.5 254 286.7
L 254 183.3 262.55 169.65
Q 273.1 152.75 270.2 137.45 261.4 134.8 242.2 136.25
L 242.15 149.2 242.2 150.05 242.1 150.95 Z"/>

<path fill="url(#Gradient_1)" stroke="none" d="
M 133.5 261.1
Q 133.25 260.95 132.95 260.85 132.9 260.8 132.8 260.8 131 263.1 127.85 264.95 117.3 271.15 91.8 271.8 63.85 272.55 48.9 263.95 47.8 262.7 45.8 260.9
L 45.8 281.2
Q 45.7 298.35 54.45 308.4 54.45 308.5 55.7 310.05 88.65 322.15 120.1 310.5 121.7 308.6 121.7 308.55 131.7 298.95 133.5 283.35
L 133.5 261.1 Z"/>

<path fill="#CCCCCC" stroke="none" d="
M 88.05 254
Q 103.4 254.35 114.1 256.5 123.35 258.35 127.4 261.15
L 127.85 261.15
Q 128.5 263.05 127.85 264.95 131 263.1 132.8 260.8 125.05 251.7 91.6 250.7 58.1 249.65 44.25 255
L 43.65 255 43.65 257.1
Q 43.65 259.1 45.75 260.85 45.75 260.9 45.8 260.9 47.8 262.7 48.9 263.95 47.1 259.35 48.9 258.4 53.15 256.2 62.1 255 72.8 253.6 88.05 254 Z"/>

<path fill="url(#Gradient_2)" stroke="none" d="
M 114.1 256.5
Q 103.4 254.35 88.05 254 72.8 253.6 62.1 255 53.15 256.2 48.9 258.4 47.1 259.35 48.9 263.95 63.85 272.55 91.8 271.8 117.3 271.15 127.85 264.95 128.5 263.05 127.85 261.15
L 127.4 261.15
Q 123.35 258.35 114.1 256.5 Z"/>

<path fill="url(#Gradient_3)" stroke="none" d="
M 150.15 304.95
L 150.15 307.8
Q 151.5 313.3 163.45 317.35 177 321.95 196.1 321.95 215.15 321.95 228.65 317.35 240.95 313.2 242.1 307.5
L 242.15 305.2 242.2 289.7
Q 242.05 294.3 235.1 297.95 232.4 299.3 228.65 300.6 215.15 305.15 196.1 305.15 177 305.15 163.45 300.6 159.75 299.3 157.1 297.95 150.2 294.3 149.95 289.8
L 150.15 304.95 Z"/>

<path fill="url(#Gradient_4)" stroke="none" d="
M 152.35 284.4
Q 149.95 286.8 149.95 289.5 149.95 289.65 149.95 289.8 150.2 294.3 157.1 297.95 159.75 299.3 163.45 300.6 177 305.15 196.1 305.15 215.15 305.15 228.65 300.6 232.4 299.3 235.1 297.95 242.05 294.3 242.2 289.7
L 242.2 289.5
Q 242.2 286.8 239.85 284.45
L 239.85 288.3
Q 239.65 291.9 233.05 294.75 230.55 295.85 227 296.85 214.15 300.45 196.1 300.45 177.95 300.45 165.15 296.85 161.6 295.85 159.05 294.75 152.55 291.9 152.35 288.3
L 152.35 284.4 Z"/>

<path fill="url(#Gradient_5)" stroke="none" d="
M 196.1 162.35
Q 176.95 162.35 163.45 158.75 155.65 156.65 152.35 154.15
L 152.35 284.4 152.35 288.3
Q 152.55 291.9 159.05 294.75 161.6 295.85 165.15 296.85 177.95 300.45 196.1 300.45 214.15 300.45 227 296.85 230.55 295.85 233.05 294.75 239.65 291.9 239.85 288.3
L 239.85 284.45 239.85 154.05
Q 236.55 156.65 228.65 158.75 215.3 162.35 196.1 162.35 Z"/>

<path fill="url(#Gradient_6)" stroke="none" d="
M 235.1 140.8
Q 232.4 141.85 228.65 142.85 215.15 146.45 196.1 146.45 177 146.45 163.45 142.85 159.75 141.85 157.1 140.8 150.2 137.85 149.95 134.4
L 150.15 148.95 150.15 151.25
Q 150.6 152.75 152.35 154.15 155.65 156.65 163.45 158.75 176.95 162.35 196.1 162.35 215.3 162.35 228.65 158.75 236.55 156.65 239.85 154.05 241.7 152.55 242.1 150.95
L 242.15 149.2 242.2 136.25 242.2 134.35
Q 242.05 137.85 235.1 140.8 Z"/>

<path fill="#B9B9B9" stroke="none" d="
M 242.2 134.35
L 239.9 130.6
Q 239.75 133.75 233.15 136.3 230.65 137.2 227.05 138.05 214.35 141.25 196.35 141.25 178.25 141.25 165.5 138.05 162 137.2 159.5 136.3 153 133.75 152.75 130.65 153 133.75 159.5 136.3 162 137.2 165.5 138.05 178.25 141.25 196.35 141.25 214.35 141.25 227.05 138.05 230.65 137.2 233.15 136.3 239.75 133.75 239.9 130.6 234.05 127.6 223.8 126.05 224.35 126.6 224.9 127.05 226.1 127.6 226.75 128.2
L 226.8 128.25
Q 227.35 128.8 227.35 129.4 227.35 131.85 218.15 133.55 209 135.3 196.05 135.3 183.05 135.3 173.9 133.55 164.7 131.85 164.7 129.4 164.7 129.3 164.75 129.15 164.9 128.35 166.05 127.65 166.5 127.35 167.1 127.05 168.2 126.4 169.15 125.6 158.2 127.05 152.3 130.2 149.95 131.4 149.95 134.1 149.95 134.25 149.95 134.4 150.2 137.85 157.1 140.8 159.75 141.85 163.45 142.85 177 146.45 196.1 146.45 215.15 146.45 228.65 142.85 232.4 141.85 235.1 140.8 242.05 137.85 242.2 134.35
M 219.55 120.3
L 219.45 120.3
Q 219.45 122.45 212.6 123.95 211.95 124.05 211.2 124.25 210.25 124.45 209.3 124.6 203.55 125.45 196.15 125.45 188.15 125.45 182.05 124.45 181.5 124.35 180.95 124.25 180.3 124.05 179.65 123.95 172.85 122.45 172.85 120.3 171.45 123.55 169.15 125.6 168.2 126.4 167.1 127.05 166.5 127.35 166.05 127.65 164.9 128.35 164.75 129.15 164.7 129.3 164.7 129.4 164.7 131.85 173.9 133.55 183.05 135.3 196.05 135.3 209 135.3 218.15 133.55 227.35 131.85 227.35 129.4 227.35 128.8 226.8 128.25
L 226.75 128.2
Q 226.1 127.6 224.9 127.05 224.35 126.6 223.8 126.05 221.8 124 219.55 120.3 Z"/>

<path fill="url(#Gradient_7)" stroke="none" d="
M 212.6 114.35
Q 211.95 114.45 211.2 114.65 204.85 115.85 196.15 115.85 187.4 115.85 180.95 114.65 180.3 114.45 179.65 114.35 179.55 114.35 179.4 114.3 172.95 112.8 172.85 110.75
L 172.85 120.15
Q 172.85 120.25 172.85 120.3 172.85 122.45 179.65 123.95 180.3 124.05 180.95 124.25 181.5 124.35 182.05 124.45 188.15 125.45 196.15 125.45 203.55 125.45 209.3 124.6 210.25 124.45 211.2 124.25 211.95 124.05 212.6 123.95 219.45 122.45 219.45 120.3 219.45 120.25 219.45 120.1
L 219.45 110.75
Q 219.35 112.8 212.9 114.3 212.7 114.35 212.6 114.35 Z"/>

<path fill="url(#Gradient_8)" stroke="none" d="
M 219.45 110.75
L 219.45 110.7
Q 219.45 110.65 219.45 110.5 219.15 108.45 212.6 107.05 205.8 105.55 196.15 105.55 186.5 105.55 179.65 107.05 174.2 108.25 173.15 109.9 173.05 110.1 173 110.25 172.85 110.4 172.85 110.55 172.85 110.65 172.85 110.7
L 172.85 110.75
Q 172.95 112.8 179.4 114.3 179.55 114.35 179.65 114.35 180.3 114.45 180.95 114.65 187.4 115.85 196.15 115.85 204.85 115.85 211.2 114.65 211.95 114.45 212.6 114.35 212.7 114.35 212.9 114.3 219.35 112.8 219.45 110.75 Z"/>
</g>

<path id="Layer0_0_1_STROKES" stroke="#000000" stroke-width="2" stroke-linejoin="round" stroke-linecap="round" fill="none" d="
M 172.85 110.75
L 172.85 110.7
Q 172.85 110.65 172.85 110.55 172.85 110.4 173 110.25 173.05 110.1 173.15 109.9 174.2 108.25 179.65 107.05 186.5 105.55 196.15 105.55 205.8 105.55 212.6 107.05 219.15 108.45 219.45 110.5 219.45 110.65 219.45 110.7
L 219.45 110.75 219.45 120.1
Q 219.5 120.15 219.55 120.3 221.8 124 223.8 126.05 234.05 127.6 239.9 130.6
L 242.2 134.35
M 242.2 136.25
Q 261.4 134.8 270.2 137.45 273.1 152.75 262.55 169.65
L 254 183.3 254 286.7
Q 250 301.5 242.15 305.2 242.2 305.75 242.2 306.3 242.2 306.9 242.1 307.5 240.95 313.2 228.65 317.35 215.15 321.95 196.1 321.95 177 321.95 163.45 317.35 151.5 313.3 150.15 307.8 149.95 307.05 149.95 306.3 149.95 305.6 150.15 304.95
L 149.95 289.8
Q 149.95 289.65 149.95 289.5 149.95 286.8 152.35 284.4
L 152.35 154.15
Q 150.6 152.75 150.15 151.25 149.95 150.65 149.95 150.05 149.95 149.5 150.15 148.95
L 149.95 134.4
Q 149.95 134.25 149.95 134.1 149.95 131.4 152.3 130.2 158.2 127.05 169.15 125.6 171.45 123.55 172.85 120.3 172.85 120.25 172.85 120.15
L 172.85 110.75
Q 172.95 112.8 179.4 114.3 179.55 114.35 179.65 114.35 180.3 114.45 180.95 114.65 187.4 115.85 196.15 115.85 204.85 115.85 211.2 114.65 211.95 114.45 212.6 114.35 212.7 114.35 212.9 114.3 219.35 112.8 219.45 110.75
M 219.45 120.3
Q 219.45 122.45 212.6 123.95 211.95 124.05 211.2 124.25 210.25 124.45 209.3 124.6 203.55 125.45 196.15 125.45 188.15 125.45 182.05 124.45 181.5 124.35 180.95 124.25 180.3 124.05 179.65 123.95 172.85 122.45 172.85 120.3
M 219.45 120.1
Q 219.45 120.25 219.45 120.3
M 169.15 125.6
Q 168.2 126.4 167.1 127.05 166.5 127.35 166.05 127.65 164.9 128.35 164.75 129.15 164.7 129.3 164.7 129.4 164.7 131.85 173.9 133.55 183.05 135.3 196.05 135.3 209 135.3 218.15 133.55 227.35 131.85 227.35 129.4 227.35 128.8 226.8 128.25
L 226.75 128.2
Q 226.1 127.6 224.9 127.05 224.35 126.6 223.8 126.05
M 242.2 134.35
Q 242.05 137.85 235.1 140.8 232.4 141.85 228.65 142.85 215.15 146.45 196.1 146.45 177 146.45 163.45 142.85 159.75 141.85 157.1 140.8 150.2 137.85 149.95 134.4
M 239.9 130.6
Q 239.75 133.75 233.15 136.3 230.65 137.2 227.05 138.05 214.35 141.25 196.35 141.25 178.25 141.25 165.5 138.05 162 137.2 159.5 136.3 153 133.75 152.75 130.65
M 239.85 154.05
Q 236.55 156.65 228.65 158.75 215.3 162.35 196.1 162.35 176.95 162.35 163.45 158.75 155.65 156.65 152.35 154.15
M 242.1 150.95
Q 241.7 152.55 239.85 154.05
L 239.85 284.45
Q 242.2 286.8 242.2 289.5
L 242.2 289.7 242.15 305.2 242.1 307.5
M 242.1 150.95
L 242.15 149.2 242.2 136.25
M 242.15 149.2
L 242.2 150.05 242.1 150.95
M 150.15 148.95
L 150.15 151.25
M 127.4 261.15
Q 123.35 258.35 114.1 256.5 103.4 254.35 88.05 254 72.8 253.6 62.1 255 53.15 256.2 48.9 258.4 47.1 259.35 48.9 263.95 63.85 272.55 91.8 271.8 117.3 271.15 127.85 264.95 128.5 263.05 127.85 261.15
M 132.8 260.8
Q 132.9 260.8 132.95 260.85 133.25 260.95 133.5 261.1
L 133.5 283.35
Q 131.7 298.95 121.7 308.55 121.7 308.6 120.1 310.5 117.75 312.4 112.65 315.2 87.1 324.3 62.55 315.2 61.1 314.35 59.8 313.35 59.7 313.95 58.8 313.2 43.6 310.95 28.3 304.4 14.55 290.35 14.15 276.3
L 14.15 254.95
Q 32.2 253.75 43.65 254.95
L 44.25 255
Q 58.1 249.65 91.6 250.7 125.05 251.7 132.8 260.8 131 263.1 127.85 264.95
M 239.85 284.45
L 239.85 288.3
Q 239.65 291.9 233.05 294.75 230.55 295.85 227 296.85 214.15 300.45 196.1 300.45 177.95 300.45 165.15 296.85 161.6 295.85 159.05 294.75 152.55 291.9 152.35 288.3
L 152.35 284.4
M 20.85 278.5
Q 22.5 289.9 30.9 298.4 40.5 302.5 39.55 292.15
L 36.9 264.8
Q 35.05 262.15 28.8 262.05 22.5 262 20.85 264.8
L 20.85 278.5 Z
M 43.65 255
L 43.65 257.1
Q 43.65 259.1 45.75 260.85 45.75 260.9 45.8 260.9 47.8 262.7 48.9 263.95
M 43.65 254.95
L 43.65 255
M 55.7 310.05
Q 54.45 308.5 54.45 308.4 45.7 298.35 45.8 281.2
L 45.8 260.9
M 59.8 313.35
Q 59.3 313.3 58.8 313.2 57.5 312.15 55.7 310.05 88.65 322.15 120.1 310.5
M 150.15 304.95
L 150.15 307.8
M 242.2 289.7
Q 242.05 294.3 235.1 297.95 232.4 299.3 228.65 300.6 215.15 305.15 196.1 305.15 177 305.15 163.45 300.6 159.75 299.3 157.1 297.95 150.2 294.3 149.95 289.8"/>
</defs>

<g transform="matrix( 1, 0, 0, 1, 0,0) ">
<use xlink:href="#Layer0_0_FILL"/>

<use xlink:href="#Layer0_0_1_STROKES"/>
</g>
</svg>
